X:904
T:Anglais efter Per Nilsson Dahlberg
T:(SvL Skåne nr. 193)
S:efter Per Nilsson Dahlberg
S:Svenska Låtar Skåne nr 193
B:Svenska Låtar Skåne
R:Anglais
Z:Patrik Månsson, 2009-01-03
O:Nymö, Skåne
M:2/4
L:1/16
K:C

|: C2cc (cE)Gc | eggg gBce | Bddd BDGB | Bded c4 :|
|: eggg eBce | f2a2 a4 | BDGB d2e2 | fagB c4 :|


(:musicend:)
(:music:)
